!! 00000] TT[00
!! NN
!!!OTL: Han yang ge
!!!ARE: Asia, China,ÿAnhui, Chaoxian
!! Ethnic Group: Han
!! III, 572
!!!SCT: C0349
!!!YEM: Copyright 1995, estate of Helmut Schaffrath.
**kern
*ICvox
*Ivox
!! Mixed meters:  4/4; 2/4; 3/4
*M3/4
*k[]
*C:
{8.cc
16a
=1
2.g}
=2
{8e
8g
=3
*M2/4
8.cc
16a
8cc
8dd
=4
*M3/4
16gg
[8.ee
2ee]}
=5
*M2/4
{16gg
8.ee
4dd
=6
*M4/4
1cc}
=7
{8.cc
16dd
8ee
16gg
16ee
2dd
=8
*M2/4
16cc
[8.a
4a]}
=9
*M4/4
{4cc
8.dd
16ee
16gg
16ee
32dd
32cc
16a
8.a
16cc
=10
*M3/4
2.dd}
=11
{16ee
8.dd
=12
*M4/4
4ee
8dd
8cc
16cc
[8.a
4a]}
=13
{8.g
16a
4.cc
16gg
16ee
16dd
16dd
16cc
16a
=14
*M3/4
4a
2a}
=15
*M4/4
{16gg
[8.ee
2.ee]
=16
*M3/4
16ee
[8.dd
2dd]}
=17
*M4/4
{8gg
4ee
8dd
4cc
4dd
=18
8gg
4ee
8dd
2ee}
=19
{4dd
8ee
8gg
8dd
8cc
4a
=20
*M2/4
8cc
16a
16cc
16dd
32cc
32dd
16ee
16dd
=21
*M4/4
4.cc
8a
4cc
4dd}
=22
{16gg
[8.ee
8ee]
8dd
4ee
4r
=23
16gg
[8.ee
8ee]
8dd
4cc
16gg
8.ee}
=24
{4.dd
8ee
16a
[8.cc
8cc]
8a
=25
16dd
8.cc
8a
8g
16cc
[8.a
4a]}
=26
*M2/4
{4.cc
16dd
16ee
=27
8ee
4dd
8a
=28
2cc}
=29
{16dd
[8.dd
4dd]
=30
*M4/4
16ee
8.dd
16cc
[8.a
2a]
=31
16cc
8.a
8g
8a
4g}
==
!!!AGN: Shange, Tiange. Nongtian laodong shi chang
!! Das Lied ist sehr lang. Es gibt zwei Vorsaenger. Der zweite
!!    beginnt auf S. 573 oben. Kann auch freier gesungen werden.
!!    Ab letzter Takt 1. Zeile S. 573 wird unisono gesungen.
!!    Vereinzelt Verzierungen.
!!!ONB: ESAC (Essen Associative Code) Database: CHINA
!!!AMT: irregular
!!!AIN: vox
!!!EED: Helmut Schaffrath
!!!EEV: 1.0
*-
